static/img/kroki/5d0a1f6b6c4cd71badf01da92f15aa48.svg

<?xml version="1.0" encoding="us-ascii" standalone="no"?><svg xmlns="http://www.w3.org/2000/svg" xmlns:xlink="http://www.w3.org/1999/xlink" contentStyleType="text/css" height="895px" preserveAspectRatio="none" style="width:337px;height:895px;" version="1.1" viewBox="0 0 337 895" width="337px" zoomAndPan="magnify"><defs/><g><!--class aws_ec2_instance_type--><g id="elem_aws_ec2_instance_type"><rect codeLine="23" fill="#3D176E" height="39.7891" id="aws_ec2_instance_type" rx="2.5" ry="2.5" style="stroke:#000D19;stroke-width:0.5;" width="238" x="10.5" y="849.73"/><ellipse cx="25.5" cy="869.6245" fill="#ADD1B2" rx="11" ry="11" style="stroke:#181818;stroke-width:1.0;"/><path d="M28.4688,875.2652 Q27.8906,875.562 27.25,875.7027 Q26.6094,875.8589 25.9063,875.8589 Q23.4063,875.8589 22.0781,874.2183 Q20.7656,872.562 20.7656,869.437 Q20.7656,866.312 22.0781,864.6558 Q23.4063,862.9995 25.9063,862.9995 Q26.6094,862.9995 27.25,863.1558 Q27.9063,863.312 28.4688,863.6089 L28.4688,866.3277 Q27.8438,865.7495 27.25,865.4839 Q26.6563,865.2027 26.0313,865.2027 Q24.6875,865.2027 24,866.2808 Q23.3125,867.3433 23.3125,869.437 Q23.3125,871.5308 24,872.6089 Q24.6875,873.6714 26.0313,873.6714 Q26.6563,873.6714 27.25,873.4058 Q27.8438,873.1245 28.4688,872.5464 L28.4688,875.2652 Z " fill="#000000"/><text fill="#D9B8FF" font-family="Helvetica" font-size="17" lengthAdjust="spacing" textLength="196" x="44.5" y="875.5098">aws_ec2_instance_type</text></g><!--class aws_resource--><g id="elem_aws_resource"><rect codeLine="26" fill="#3D176E" height="39.7891" id="aws_resource" rx="2.5" ry="2.5" style="stroke:#000D19;stroke-width:0.5;" width="155" x="7" y="267.57"/><ellipse cx="22" cy="287.4645" fill="#ADD1B2" rx="11" ry="11" style="stroke:#181818;stroke-width:1.0;"/><path d="M24.9688,293.1052 Q24.3906,293.402 23.75,293.5427 Q23.1094,293.6989 22.4063,293.6989 Q19.9063,293.6989 18.5781,292.0583 Q17.2656,290.402 17.2656,287.277 Q17.2656,284.152 18.5781,282.4958 Q19.9063,280.8395 22.4063,280.8395 Q23.1094,280.8395 23.75,280.9958 Q24.4063,281.152 24.9688,281.4489 L24.9688,284.1677 Q24.3438,283.5895 23.75,283.3239 Q23.1563,283.0427 22.5313,283.0427 Q21.1875,283.0427 20.5,284.1208 Q19.8125,285.1833 19.8125,287.277 Q19.8125,289.3708 20.5,290.4489 Q21.1875,291.5114 22.5313,291.5114 Q23.1563,291.5114 23.75,291.2458 Q24.3438,290.9645 24.9688,290.3864 L24.9688,293.1052 Z " fill="#000000"/><text fill="#D9B8FF" font-family="Helvetica" font-size="17" lengthAdjust="spacing" textLength="113" x="41" y="293.3498">aws_resource</text></g><!--class instance_type--><g id="elem_instance_type"><rect codeLine="29" fill="#3D176E" height="39.7891" id="instance_type" rx="2.5" ry="2.5" style="stroke:#000D19;stroke-width:0.5;" width="158" x="147.5" y="688.94"/><ellipse cx="162.5" cy="708.8345" fill="#ADD1B2" rx="11" ry="11" style="stroke:#181818;stroke-width:1.0;"/><path d="M165.4688,714.4752 Q164.8906,714.772 164.25,714.9127 Q163.6094,715.0689 162.9063,715.0689 Q160.4063,715.0689 159.0781,713.4283 Q157.7656,711.772 157.7656,708.647 Q157.7656,705.522 159.0781,703.8658 Q160.4063,702.2095 162.9063,702.2095 Q163.6094,702.2095 164.25,702.3658 Q164.9063,702.522 165.4688,702.8189 L165.4688,705.5377 Q164.8438,704.9595 164.25,704.6939 Q163.6563,704.4127 163.0313,704.4127 Q161.6875,704.4127 161,705.4908 Q160.3125,706.5533 160.3125,708.647 Q160.3125,710.7408 161,711.8189 Q161.6875,712.8814 163.0313,712.8814 Q163.6563,712.8814 164.25,712.6158 Q164.8438,712.3345 165.4688,711.7564 L165.4688,714.4752 Z " fill="#000000"/><text fill="#D9B8FF" font-family="Helvetica" font-size="17" lengthAdjust="spacing" textLength="116" x="181.5" y="714.7198">instance_type</text></g><!--class phantom_resource--><g id="elem_phantom_resource"><rect codeLine="32" fill="#3D176E" height="39.7891" id="phantom_resource" rx="2.5" ry="2.5" style="stroke:#000D19;stroke-width:0.5;" width="198" x="132.5" y="167.79"/><ellipse cx="147.5" cy="187.6845" fill="#ADD1B2" rx="11" ry="11" style="stroke:#181818;stroke-width:1.0;"/><path d="M150.4688,193.3252 Q149.8906,193.622 149.25,193.7627 Q148.6094,193.9189 147.9063,193.9189 Q145.4063,193.9189 144.0781,192.2783 Q142.7656,190.622 142.7656,187.497 Q142.7656,184.372 144.0781,182.7158 Q145.4063,181.0595 147.9063,181.0595 Q148.6094,181.0595 149.25,181.2158 Q149.9063,181.372 150.4688,181.6689 L150.4688,184.3877 Q149.8438,183.8095 149.25,183.5439 Q148.6563,183.2627 148.0313,183.2627 Q146.6875,183.2627 146,184.3408 Q145.3125,185.4033 145.3125,187.497 Q145.3125,189.5908 146,190.6689 Q146.6875,191.7314 148.0313,191.7314 Q148.6563,191.7314 149.25,191.4658 Q149.8438,191.1845 150.4688,190.6064 L150.4688,193.3252 Z " fill="#000000"/><text fill="#D9B8FF" font-family="Helvetica" font-size="17" lengthAdjust="spacing" textLength="156" x="166.5" y="193.5698">phantom_resource</text></g><!--class quota--><g id="elem_quota"><rect codeLine="35" fill="#3D176E" height="39.7891" id="quota" rx="2.5" ry="2.5" style="stroke:#000D19;stroke-width:0.5;" width="90" x="183.5" y="367.36"/><ellipse cx="198.5" cy="387.2545" fill="#ADD1B2" rx="11" ry="11" style="stroke:#181818;stroke-width:1.0;"/><path d="M201.4688,392.8952 Q200.8906,393.192 200.25,393.3327 Q199.6094,393.4889 198.9063,393.4889 Q196.4063,393.4889 195.0781,391.8483 Q193.7656,390.192 193.7656,387.067 Q193.7656,383.942 195.0781,382.2858 Q196.4063,380.6295 198.9063,380.6295 Q199.6094,380.6295 200.25,380.7858 Q200.9063,380.942 201.4688,381.2389 L201.4688,383.9577 Q200.8438,383.3795 200.25,383.1139 Q199.6563,382.8327 199.0313,382.8327 Q197.6875,382.8327 197,383.9108 Q196.3125,384.9733 196.3125,387.067 Q196.3125,389.1608 197,390.2389 Q197.6875,391.3014 199.0313,391.3014 Q199.6563,391.3014 200.25,391.0358 Q200.8438,390.7545 201.4688,390.1764 L201.4688,392.8952 Z " fill="#000000"/><text fill="#D9B8FF" font-family="Helvetica" font-size="17" lengthAdjust="spacing" textLength="48" x="217.5" y="393.1398">quota</text></g><!--class resource--><g id="elem_resource"><rect codeLine="38" fill="#3D176E" height="39.7891" id="resource" rx="2.5" ry="2.5" style="stroke:#000D19;stroke-width:0.5;" width="113" x="58" y="7"/><ellipse cx="73" cy="26.8945" fill="#ADD1B2" rx="11" ry="11" style="stroke:#181818;stroke-width:1.0;"/><path d="M75.9688,32.5352 Q75.3906,32.832 74.75,32.9727 Q74.1094,33.1289 73.4063,33.1289 Q70.9063,33.1289 69.5781,31.4883 Q68.2656,29.832 68.2656,26.707 Q68.2656,23.582 69.5781,21.9258 Q70.9063,20.2695 73.4063,20.2695 Q74.1094,20.2695 74.75,20.4258 Q75.4063,20.582 75.9688,20.8789 L75.9688,23.5977 Q75.3438,23.0195 74.75,22.7539 Q74.1563,22.4727 73.5313,22.4727 Q72.1875,22.4727 71.5,23.5508 Q70.8125,24.6133 70.8125,26.707 Q70.8125,28.8008 71.5,29.8789 Q72.1875,30.9414 73.5313,30.9414 Q74.1563,30.9414 74.75,30.6758 Q75.3438,30.3945 75.9688,29.8164 L75.9688,32.5352 Z " fill="#000000"/><text fill="#D9B8FF" font-family="Helvetica" font-size="17" lengthAdjust="spacing" textLength="71" x="92" y="32.7798">resource</text></g><!--class type--><g id="elem_type"><rect codeLine="41" fill="#3D176E" height="39.7891" id="type" rx="2.5" ry="2.5" style="stroke:#000D19;stroke-width:0.5;" width="79" x="188" y="528.15"/><ellipse cx="203" cy="548.0445" fill="#ADD1B2" rx="11" ry="11" style="stroke:#181818;stroke-width:1.0;"/><path d="M205.9688,553.6852 Q205.3906,553.982 204.75,554.1227 Q204.1094,554.2789 203.4063,554.2789 Q200.9063,554.2789 199.5781,552.6383 Q198.2656,550.982 198.2656,547.857 Q198.2656,544.732 199.5781,543.0758 Q200.9063,541.4195 203.4063,541.4195 Q204.1094,541.4195 204.75,541.5758 Q205.4063,541.732 205.9688,542.0289 L205.9688,544.7477 Q205.3438,544.1695 204.75,543.9039 Q204.1563,543.6227 203.5313,543.6227 Q202.1875,543.6227 201.5,544.7008 Q200.8125,545.7633 200.8125,547.857 Q200.8125,549.9508 201.5,551.0289 Q202.1875,552.0914 203.5313,552.0914 Q204.1563,552.0914 204.75,551.8258 Q205.3438,551.5445 205.9688,550.9664 L205.9688,553.6852 Z " fill="#000000"/><text fill="#D9B8FF" font-family="Helvetica" font-size="17" lengthAdjust="spacing" textLength="37" x="222" y="553.9298">type</text></g><!--reverse link aws_resource to aws_ec2_instance_type--><g id="link_aws_resource_aws_ec2_instance_type"><path codeLine="44" d="M87.8619,325.6812 C90.7319,358.4212 94.5,409.05 94.5,467.15 C94.5,467.15 94.5,467.15 94.5,709.84 C94.5,761.21 112.19,819.8 122.42,849.37 " fill="none" id="aws_resource-backto-aws_ec2_instance_type" style="stroke:#FFAF37;stroke-width:2.0;"/><polygon fill="none" points="86.29,307.75,81.8848,326.2052,93.8389,325.1573,86.29,307.75" style="stroke:#FFAF37;stroke-width:2.0;"/></g><!--reverse link instance_type to aws_ec2_instance_type--><g id="link_instance_type_aws_ec2_instance_type"><path codeLine="45" d="M205.418,744.3516 C186.778,774.8716 159.91,818.84 141.24,849.4 " fill="none" id="instance_type-backto-aws_ec2_instance_type" style="stroke:#FFAF37;stroke-width:2.0;"/><polygon fill="none" points="214.8,728.99,200.2975,741.2242,210.5385,747.4789,214.8,728.99" style="stroke:#FFAF37;stroke-width:2.0;"/></g><!--reverse link resource to aws_resource--><g id="link_resource_aws_resource"><path codeLine="46" d="M110.2175,64.7803 C104.6875,112.4903 92.33,218.97 86.75,267.08 " fill="none" id="resource-backto-aws_resource" style="stroke:#FFAF37;stroke-width:2.0;"/><polygon fill="none" points="112.29,46.9,104.2574,64.0895,116.1776,65.4711,112.29,46.9" style="stroke:#FFAF37;stroke-width:2.0;"/></g><!--reverse link type to instance_type--><g id="link_type_instance_type"><path codeLine="47" d="M227.2679,586.1997 C227.0779,616.7197 226.81,658.05 226.62,688.61 " fill="none" id="type-backto-instance_type" style="stroke:#FFAF37;stroke-width:2.0;"/><polygon fill="none" points="227.38,568.2,221.2681,586.1623,233.2678,586.237,227.38,568.2" style="stroke:#FFAF37;stroke-width:2.0;"/></g><!--reverse link resource to phantom_resource--><g id="link_resource_phantom_resource"><path codeLine="48" d="M139.2881,61.5306 C161.7781,92.0506 194.82,136.9 217.34,167.46 " fill="none" id="resource-backto-phantom_resource" style="stroke:#FFAF37;stroke-width:2.0;"/><polygon fill="none" points="128.61,47.04,134.4579,65.09,144.1183,57.9713,128.61,47.04" style="stroke:#FFAF37;stroke-width:2.0;"/></g><!--reverse link phantom_resource to quota--><g id="link_phantom_resource_quota"><path codeLine="49" d="M230.9337,225.9779 C230.3537,263.7579 229.37,329.04 228.79,366.88 " fill="none" id="phantom_resource-backto-quota" style="stroke:#FFAF37;stroke-width:2.0;"/><polygon fill="none" points="231.21,207.98,224.9344,225.8858,236.933,226.07,231.21,207.98" style="stroke:#FFAF37;stroke-width:2.0;"/></g><!--reverse link quota to type--><g id="link_quota_type"><path codeLine="50" d="M228.2679,425.4097 C228.0779,455.9297 227.81,497.26 227.62,527.83 " fill="none" id="quota-backto-type" style="stroke:#FFAF37;stroke-width:2.0;"/><polygon fill="none" points="228.38,407.41,222.2681,425.3723,234.2678,425.447,228.38,407.41" style="stroke:#FFAF37;stroke-width:2.0;"/></g><!--SRC=[XP1BRy8m48Jl_XMME2FnK0j8lG1IrLvGLNf7Ixmc5ecThZT5zF7Vsv3IEW_2TVQRtPcDZKA9QSP7cMAwHVB2xutDW22LSo9tMBh4aUnf3NeygG_ldUMhm0fIb0-Ol26R2Eh4IsoYlKNlvIWOBI3QxyZbLfNhcS3wdn5Q3gXb0jxFcSbiSyOWZ9fjfrhNoVhItbWD9xVOm1mff5zaC1YeuQoEN3tLsVkFM9jtbCFmQIl7s8ZPE76YEbCMH12oKVGylvZn2PGoTYTl0ksvp4GMgQAlOr3kKD0Q4X-UyOo4ZeyPBXkjS3PLUj8AFrw2HLIyJiB1Rp0QROpr33R2JM6I7q9y1G2XTpb55VsY8Ol1iajRJQ-vOmY5DkX_OUNstMU_ts_FAwfXkiYMTMT91EPEKxsXQ5GkkLDRKNOkbTEsRm00]--></g></svg>

<svg xmlns="http://www.w3.org/2000/svg" width="337" height="895" viewBox="0 0 337 895"><rect width="238" height="39.789" x="10.5" y="849.73" fill="#3D176E" rx="2.5" ry="2.5" style="stroke:#000d19;stroke-width:.5"/><circle cx="25.5" cy="869.625" r="11" fill="#ADD1B2" style="stroke:#181818;stroke-width:1"/><path d="M28.469 875.265q-.578.297-1.219.438-.64.156-1.344.156-2.5 0-3.828-1.64-1.312-1.657-1.312-4.782t1.312-4.781Q23.406 863 25.906 863q.703 0 1.344.156.656.156 1.219.453v2.719q-.625-.578-1.219-.844-.594-.281-1.219-.281-1.343 0-2.031 1.078-.687 1.062-.687 3.156t.687 3.172q.688 1.062 2.031 1.062.625 0 1.219-.265.594-.281 1.219-.86z"/><text x="44.5" y="875.51" fill="#D9B8FF" font-family="Helvetica" font-size="17" textLength="196">aws_ec2_instance_type</text><rect width="155" height="39.789" x="7" y="267.57" fill="#3D176E" rx="2.5" ry="2.5" style="stroke:#000d19;stroke-width:.5"/><circle cx="22" cy="287.464" r="11" fill="#ADD1B2" style="stroke:#181818;stroke-width:1"/><path d="M24.969 293.105q-.578.297-1.219.438-.64.156-1.344.156-2.5 0-3.828-1.64-1.312-1.657-1.312-4.782t1.312-4.781q1.328-1.656 3.828-1.656.703 0 1.344.156.656.156 1.219.453v2.719q-.625-.579-1.219-.844-.594-.281-1.219-.281-1.343 0-2.031 1.078-.687 1.062-.687 3.156t.687 3.172q.688 1.062 2.031 1.062.625 0 1.219-.265.594-.281 1.219-.86z"/><text x="41" y="293.35" fill="#D9B8FF" font-family="Helvetica" font-size="17" textLength="113">aws_resource</text><rect width="158" height="39.789" x="147.5" y="688.94" fill="#3D176E" rx="2.5" ry="2.5" style="stroke:#000d19;stroke-width:.5"/><circle cx="162.5" cy="708.835" r="11" fill="#ADD1B2" style="stroke:#181818;stroke-width:1"/><path d="M165.469 714.475q-.578.297-1.219.438-.64.156-1.344.156-2.5 0-3.828-1.64-1.312-1.657-1.312-4.782t1.312-4.781q1.328-1.656 3.828-1.656.703 0 1.344.156.656.156 1.219.453v2.719q-.625-.578-1.219-.844-.594-.281-1.219-.281-1.344 0-2.031 1.078-.687 1.062-.687 3.156t.687 3.172q.688 1.062 2.031 1.062.625 0 1.219-.265.594-.281 1.219-.86z"/><text x="181.5" y="714.72" fill="#D9B8FF" font-family="Helvetica" font-size="17" textLength="116">instance_type</text><rect width="198" height="39.789" x="132.5" y="167.79" fill="#3D176E" rx="2.5" ry="2.5" style="stroke:#000d19;stroke-width:.5"/><circle cx="147.5" cy="187.685" r="11" fill="#ADD1B2" style="stroke:#181818;stroke-width:1"/><path d="M150.469 193.325q-.578.297-1.219.438-.64.156-1.344.156-2.5 0-3.828-1.64-1.312-1.657-1.312-4.782t1.312-4.781q1.328-1.656 3.828-1.656.703 0 1.344.156.656.156 1.219.453v2.719q-.625-.578-1.219-.844-.594-.281-1.219-.281-1.344 0-2.031 1.078-.687 1.062-.687 3.156t.687 3.172q.688 1.062 2.031 1.062.625 0 1.219-.265.594-.281 1.219-.86z"/><text x="166.5" y="193.57" fill="#D9B8FF" font-family="Helvetica" font-size="17" textLength="156">phantom_resource</text><rect width="90" height="39.789" x="183.5" y="367.36" fill="#3D176E" rx="2.5" ry="2.5" style="stroke:#000d19;stroke-width:.5"/><circle cx="198.5" cy="387.255" r="11" fill="#ADD1B2" style="stroke:#181818;stroke-width:1"/><path d="M201.469 392.895q-.578.297-1.219.438-.64.156-1.344.156-2.5 0-3.828-1.64-1.312-1.657-1.312-4.782t1.312-4.781q1.328-1.656 3.828-1.656.703 0 1.344.156.656.156 1.219.453v2.719q-.625-.579-1.219-.844-.594-.281-1.219-.281-1.344 0-2.031 1.078-.687 1.062-.687 3.156t.687 3.172q.688 1.062 2.031 1.062.625 0 1.219-.265.594-.281 1.219-.86z"/><text x="217.5" y="393.14" fill="#D9B8FF" font-family="Helvetica" font-size="17" textLength="48">quota</text><rect width="113" height="39.789" x="58" y="7" fill="#3D176E" rx="2.5" ry="2.5" style="stroke:#000d19;stroke-width:.5"/><circle cx="73" cy="26.895" r="11" fill="#ADD1B2" style="stroke:#181818;stroke-width:1"/><path d="M75.969 32.535q-.578.297-1.219.438-.64.156-1.344.156-2.5 0-3.828-1.64-1.312-1.657-1.312-4.782t1.312-4.781q1.328-1.656 3.828-1.656.703 0 1.344.156.656.156 1.219.453v2.719q-.625-.578-1.219-.844-.594-.281-1.219-.281-1.344 0-2.031 1.078-.687 1.062-.687 3.156t.687 3.172q.688 1.062 2.031 1.062.625 0 1.219-.265.594-.281 1.219-.86z"/><text x="92" y="32.78" fill="#D9B8FF" font-family="Helvetica" font-size="17" textLength="71">resource</text><rect width="79" height="39.789" x="188" y="528.15" fill="#3D176E" rx="2.5" ry="2.5" style="stroke:#000d19;stroke-width:.5"/><circle cx="203" cy="548.044" r="11" fill="#ADD1B2" style="stroke:#181818;stroke-width:1"/><path d="M205.969 553.685q-.578.297-1.219.438-.64.156-1.344.156-2.5 0-3.828-1.64-1.312-1.657-1.312-4.782t1.312-4.781q1.328-1.657 3.828-1.657.703 0 1.344.157.656.156 1.219.453v2.719q-.625-.579-1.219-.844-.594-.281-1.219-.281-1.344 0-2.031 1.078-.687 1.062-.687 3.156t.687 3.172q.688 1.062 2.031 1.062.625 0 1.219-.265.594-.282 1.219-.86z"/><text x="222" y="553.93" fill="#D9B8FF" font-family="Helvetica" font-size="17" textLength="37">type</text><g fill="none"><path d="M87.862 325.681c2.87 32.74 6.638 83.369 6.638 141.469v242.69c0 51.37 17.69 109.96 27.92 139.53" style="stroke:#ffaf37;stroke-width:2"/><path d="m86.29 307.75-4.405 18.455 11.954-1.048z" style="stroke:#ffaf37;stroke-width:2"/></g><path fill="none" d="M205.418 744.352c-18.64 30.52-45.508 74.488-64.178 105.048m73.56-120.41-14.502 12.234 10.24 6.255z" style="stroke:#ffaf37;stroke-width:2"/><g fill="none"><path d="M110.218 64.78c-5.53 47.71-17.888 154.19-23.468 202.3" style="stroke:#ffaf37;stroke-width:2"/><path d="m112.29 46.9-8.033 17.19 11.92 1.381z" style="stroke:#ffaf37;stroke-width:2"/></g><path fill="none" d="M227.268 586.2c-.19 30.52-.458 71.85-.648 102.41m.76-120.41-6.112 17.962 12 .075z" style="stroke:#ffaf37;stroke-width:2"/><g fill="none"><path d="M139.288 61.53c22.49 30.52 55.532 75.37 78.052 105.93" style="stroke:#ffaf37;stroke-width:2"/><path d="m128.61 47.04 5.848 18.05 9.66-7.119z" style="stroke:#ffaf37;stroke-width:2"/></g><g fill="none"><path d="M230.934 225.978c-.58 37.78-1.564 103.062-2.144 140.902" style="stroke:#ffaf37;stroke-width:2"/><path d="m231.21 207.98-6.276 17.906 11.999.184z" style="stroke:#ffaf37;stroke-width:2"/></g><path fill="none" d="M228.268 425.41c-.19 30.52-.458 71.85-.648 102.42m.76-120.42-6.112 17.962 12 .075z" style="stroke:#ffaf37;stroke-width:2"/></svg>
